X:1
T:Thornbury Cottage
M:C
L:1/8
Q:80
C:Bruce Gandy
S:Strathspey
K:HP
[| {g}((3dB{G}B){Gdc}d3/2B/2{g}G3/2B/2{Gdc}d3/2B/2 | \
{g}A/2e3/2{A}e3/2g/2{a}((3fed){gef}e2 | \
{g}((3dB{G}B){Gdc}d3/2B/2{g}G3/2B/2{Gdc}d3/2B/2 |
{g}A2{GdGe}A3/2{d}B/2{g}A2{GdGe}A3/2{d}B/2{g}((3dB{G}B){Gdc}d3/2B/2{g}G3
/2B/2{Gdc}d3/2B/2 | \
{g}A/2e3/2{A}e3/2g/2{a}((3fed){gef}e2 | \
{a}((3gfe){gf}g3/2e/2{Gdc}d/2g3/2{Bd}B/2{e}G3/2 |
{g}A2{GdGe}A3/2{d}B/2{g}A2{GdGe}A3/2{d}B/2|] [ | \
{gef}e2{GdG}e3/2d/2{gBd}B/2g3/2{a}((3fed) | \
{g}G3/2{d}G/2{e}G3/2A/2{gBd}B/2{e}G3/2{dc}d3/2B/2 |
{gef}e2{GdG}e3/2d/2{gBd}B/2g3/2{a}((3fed) | \
{g}A2{GdGe}A3/2{d}B/2{g}A2{GdGe}A3/2{d}B/2{gef}e2{GdG}e3/2d/2{gBd}B/2g3/
2{a}((3fed) | \
{g}G3/2A/2{gBd}B/2{e}G3/2{dc}d2{g}e3/2f/2 |
{a}((3gfe){gf}g3/2e/2{Gdc}d/2g3/2{Bd}B/2{e}G3/2 | \
{g}A2{GdGe}A3/2{d}B/2{g}A2{GdGe}A3/2{d}B/2|]
